assets/img/usageIcon6.svg

<svg width="174" height="128" viewBox="0 0 174 128" fill="none" xmlns="http://www.w3.org/2000/svg">
<path fill-rule="evenodd" clip-rule="evenodd" d="M100.737 0H9.1579C4.12105 0 0 4.11429 0 9.14286C0 14.1714 4.12105 18.2857 9.1579 18.2857H100.737C105.774 18.2857 109.895 14.1714 109.895 9.14286C109.895 4.11429 105.774 0 100.737 0ZM100.737 36.5714H9.1579C4.12105 36.5714 0 40.6857 0 45.7143C0 50.7429 4.12105 54.8571 9.1579 54.8571H100.737C105.774 54.8571 109.895 50.7429 109.895 45.7143C109.895 40.6857 105.774 36.5714 100.737 36.5714ZM9.1579 91.4286H64.1053C69.1421 91.4286 73.2632 87.3143 73.2632 82.2857C73.2632 77.2571 69.1421 73.1429 64.1053 73.1429H9.1579C4.12105 73.1429 0 77.2571 0 82.2857C0 87.3143 4.12105 91.4286 9.1579 91.4286ZM146.526 0C136.453 0 128.211 8.22857 128.211 18.2857V74.7886C125.372 73.7829 122.258 73.1429 119.053 73.1429C102.202 73.1429 89.0147 88.1371 92.0368 105.509C93.96 116.571 103.026 125.623 114.107 127.543C131.507 130.56 146.526 117.394 146.526 100.571V18.2857H164.842C169.879 18.2857 174 14.1714 174 9.14286C174 4.11429 169.879 0 164.842 0H146.526Z" fill="#65CB88"/>
</svg>

<svg width="174" height="128" fill="none" xmlns="http://www.w3.org/2000/svg"><path fill-rule="evenodd" clip-rule="evenodd" d="M100.737 0H9.157C4.122 0 0 4.114 0 9.143c0 5.028 4.121 9.143 9.158 9.143h91.579c5.037 0 9.158-4.115 9.158-9.143 0-5.029-4.121-9.143-9.158-9.143Zm0 36.571H9.157C4.122 36.571 0 40.686 0 45.714c0 5.029 4.121 9.143 9.158 9.143h91.579c5.037 0 9.158-4.114 9.158-9.143 0-5.028-4.121-9.143-9.158-9.143ZM9.157 91.43h54.948c5.037 0 9.158-4.115 9.158-9.143 0-5.029-4.12-9.143-9.158-9.143H9.158C4.12 73.143 0 77.257 0 82.286c0 5.028 4.121 9.143 9.158 9.143ZM146.527 0c-10.073 0-18.315 8.229-18.315 18.286v56.503c-2.839-1.006-5.953-1.646-9.158-1.646-16.851 0-30.038 14.994-27.016 32.366 1.923 11.062 10.989 20.114 22.07 22.034 17.4 3.017 32.419-10.149 32.419-26.972V18.286h18.316c5.037 0 9.158-4.115 9.158-9.143C174 4.114 169.879 0 164.842 0h-18.316Z" fill="#65CB88"/></svg>
